!!!!SEGMENT: pl-kozmzk--mzk-m-124_szymanowska-maria--caprice-sur-la-romance-de-joconde.krn
!!!cenid: 18xx:2743
!!!COM: Szymanowska, Maria
!!!COM-rismID: pe140138
!!!CDT: 1789/12/14-1831/07/25
!!!CNT: Polish
!!!OTL: Caprice sur la Romance de Joconde
!!!PDT:
!!!AGN: Secular
!!!YEC: Copyright 2022 Narodowy Instytut Fryderyka Chopina (https://polishscores.org)
!!!YEM: License CC-BY-4.0 (https://creativecommons.org/licenses/by/4.0)
!!!SMS-siglum: PL-KOZmzk
!!!SMS-shelfmark: mzk/m/124
!!!SMS-shelfwork: W
!!!SMS-variant:
!!!SMS-altvar:
!!!NIFC-rismSourceID: 1001083503
!!!NIFC-rismChildID: 1001083503
!!!NIFC-islandoraID: pl-kozmzk:1444
!!!URL-pdf-islandora: https://repozytorium.nifc.pl/islandora/object/pl-kozmzk%3A1444/datastream/PDF/view
!!!URL-scan: https://polish.musicsources.pl/pl/lokalizacje/galeria/druki-muzyczne/7373 @EN{Scan on Polish Music Sources Website} @PL{Skany w portalu Dziedzictwo Muzyki Polskiej w otwartym dostępie}
!!!IIIF:
!!!ONB-nifc:
!!!AIN: 1 piano
!!!key: E
**kern	**kern	**dynam
*part1	*part1	*
*staff2	*staff1	*
*Ipiano	*Ipiano	*
*ICklav	*ICklav	*
*IGsolo	*IGsolo	*
*I"Pianoforte	*I"Pianoforte	*
*clefF4	*clefG2	*
*k[f#c#g#d#]	*k[f#c#g#d#]	*
*kcancel	*kcancel	*
*E:	*E:	*
*M6/8	*M6/8	*
=1	=1	=1
4r	(8e/L	p <
.	8g#/	.
8r	8b/J)	.
4.E 4.EE/	4ee 4g#^\	.
.	8dd# 8b\	[
=2	=2	=2
2.A 2.AA\	(4.dd# 4.b\	.
.	4cc# 4a\)	.
.	8r	.
=3	=3	=3
4r	(8d#/L	<
.	8f#/	.
8r	8a/J)	.
4.BB 4.BBB/	4cc# 4a^>/	.
.	8b 8g#/	[
=4	=4	=4
*	*^	*
4.D# 4.DD#/	4b 4f#^/	[4.B\	.
.	8a/	.	.
8EL 8EE/	4g# 4e/	4B\]	.
8BB`</	.	.	.
8AA`</J	8r	8rB	.
*	*v	*v	*
=5	=5	=5
4EE/	(8g#L 8e\	.
.	8b 8g#\	.
8r	8eeJ 8b\)	.
4EE^>/	(8gg#L 8ee\	.
.	8ff# 8dd#\)	.
8r	8eeJ 8cc#`>\	.
=6	=6	=6
4AA/	(8eeL 8cc#\	.
.	8dd# 8b\)	.
8r	8cc#J 8a`>\	.
4AA^>/	(8cc#L 8a/	.
.	8b 8g#/)	.
8r	8aJ 8f#`</	.
!!LO:LB:g=original
=7	=7	=7
4BB/	(8g#L 8e`</	.
.	8a 8f#`</	.
8r	8bJ 8g#`</)	.
4BBB/	(8aL 8f#`</	.
.	8g# 8e`</	.
8r	8f#J 8B`</)	.
=8	=8	=8
8EL 8EE/	8eL 8G#`</	.
8BB/	(8B/	.
8GG#/J	8g#/J)	.
4EE/	4e/	.
8r	8r	.
=9	=9	=9
*^	*	*
!	!	!LO:TX:b:i:t=con espr:mod=con espress.	!
8GG#/L	4.EE\	(8B/L	.
8BB/	.	8e/	.
8E/J	.	8g#/J)	.
8G#/L	4.E\	4b/	.
8B/	.	.	.
8e/J	.	8b/	.
=10	=10	=10	=10
!	!	!LO:TX:t=P:problem=przekreślony obiegnik	!
8G#/L	4.E\	8.bSSS\L	.
8B/	.	.	.
.	.	16cc#\L	.
8e/J	.	16dd#\	.
.	.	8qff#/	.
.	.	16ee\JJ	.
8G#/L	4.E\	4b/	.
8B/	.	.	.
8e/J	.	8a/	.
=11	=11	=11	=11
.	.	8qa/	.
8E/L	4.C#\	8g#/L	.
8G#/	.	8f#/	.
8c#/J	.	8g#/J	.
.	.	16qqa/LL	.
.	.	16qqb/JJ	.
8C#/L	4.AA\	8.cc#^/L	.
8E/	.	.	.
.	.	16b/K	.
8A/J	.	8a/J	.
!!LO:LB:g=original
=12	=12	=12	=12
8E/L	4.BB\	(16a/LL	.
.	.	16g#/	.
8G#/	.	16f##X/	.
.	.	16g#/	.
8B/J	.	16a^/	.
.	.	16g#/JJ)	.
!	!	!LO:MO:mod=!null:null	!
!	!	!LO:N:acc=n#	!
8D#/L	4.BB\	4fn#X/	.
8F#/	.	.	.
8B/J	.	8r	.
*v	*v	*	*
=13	=13	=13
!LO:MO:null:mod=*ped	!LO:MO:mod=*null:null	!
*	*ped	*
!LO:TX:t=P:mixed beam:problem	!	!
8BB/L	4b/	.
8d# 8B\	.	.
8d#J 8B\	8b/	.
8GG#/	4.b#t/	.
8f#L 8d# 8G#\	.	.
8f#J 8d# 8G#\	.	.
.	16qqa#X/LL	.
.	16qqb#/JJ	.
=14	=14	=14
8C#/	4cc#\	.
8eL 8c# 8G#\	.	.
8eJ 8c# 8G#\	8cc#\	.
!	!LO:TX:t=P:problem=przekreślony obiegnik	!
8EE/	8.cc#SSS\L	.
8c#L 8G# 8E\	.	.
.	16dd#\K	.
8c#J 8G# 8E\	8ee\J	.
=15	=15	=15
8FF#/	(32cc##X^\LLL	.
.	32dd#\	.
.	32ee\	.
.	32dd#\JJJ)	.
8d#L 8B 8F#\	(32aa#X^\LLL	<
.	32bb\	.
!	!LO:MO:mod=!null:null	!
!	!LO:N:acc=n#	!
.	32ccc#X\	.
.	32bb\JJJ)	.
8d#J 8B 8F#\	(32ccc##X^\LLL	.
.	32ddd#\	.
.	32eee\	.
.	32ddd#\JJJ)	[
!!LO:MO:ori
!!LO:LB:g=original
=	=	=
!!LO:MO:end
!	!LO:TUP:a:problem=klamra łukowa	!
8FF#/	48ccc##y\LLL	<
.	48bb\	.
.	48aa#X\	.
.	48gg#\	.
.	48ff#\	.
.	48ee\JJJ	.
!	!LO:TUP:b:problem=klamra łukowa	!
8eL 8c# 8A#X 8F#\	48dd#/LLL	.
.	48cc##y/	.
.	48b/	.
.	48a#X/	.
.	48g#/	.
.	48f#/JJJ	.
8eJ 8c# 8A# 8F#\	64e#X/LLLL	.
.	64f#/	[
.	64g##X/	.
.	64f#/	>
!	!LO:MO:mod=!null:null	!
!	!LO:N:acc=n#	!
.	64g#X/	.
.	64f#/	.
.	64a#X/	.
.	64f#/JJJJ	]]
=16	=16	=16
*^	*	*
16BB/LL	4BB\	[>4.b/	.
16D#/	.	.	.
16F#/	.	.	.
16B/	.	.	.
16F#/	8ryy	.	.
16D#/JJ	.	.	.
16BB/LL	4BB\	4b/]	.
16D#/	.	.	.
16F#/	.	.	.
16B/	.	.	.
16F#/	8ryy	8b/	.
16D#/JJ	.	.	.
=17	=17	=17	=17
!	!	!LO:TX:b:i:t=espres:mod=espress.	!
.	.	8qddn/	.
16BB/LL	4BB\	8ccn\L	.
16E/	.	.	.
16Gn/	.	8b\	.
16cn/	.	.	.
16G/	8ryy	8cc\J	.
16E/JJ	.	.	.
.	.	16qqcc/LL	.
.	.	16qqdd/JJ	.
16BB/LL	4BB\	8.ee^\L	.
16E/	.	.	.
16G/	.	.	.
16c/	.	16ddn\K	.
16G/	8ryy	8cc\J	.
16E/JJ	.	.	.
!!LO:LB:g=original
=18	=18	=18	=18
16BB/LL	4BB\	(4.ccn^\	.
16D#/	.	.	.
16F#/	.	.	.
16cn/	.	.	.
16F#/	8ryy	.	.
16D#/JJ	.	.	.
16BB/LL	4BB\	4b\)	.
16D#/	.	.	.
16F#/	.	.	.
16B/	.	.	.
16F#/	8ryy	8r	.
16D#/JJ	.	.	.
=19	=19	=19	=19
16BB/LL	4BB\	16ccn`>\	.
16E/	.	16B/LL	.
16Gn/	.	16cn/	.
16cn/	.	16d#/	.
16G/	8ryy	(16e/	.
16E/JJ	.	16f#/JJ)	.
16BB/LL	4BB\	16gn/LL	.
16E/	.	16b/JJ	.
!	!	!LO:TUP:a:problem=klamra łukowa	!
16G/	.	24cc\LL	.
.	.	24ddn\	.
16c/	.	.	.
.	.	24ee\JJ	.
!	!	!LO:TUP:a:problem=klamra łukowa	!
16G/	8ryy	24ee\LL	.
.	.	24dd\	.
16E/JJ	.	.	.
.	.	24cc\JJ	.
=20	=20	=20	=20
16BB/LL	4BB\	(4.ccn^\	.
16D#/	.	.	.
16F#/	.	.	.
16cn/	.	.	.
16F#/	8ryy	.	.
16D#/JJ	.	.	.
16BB/LL	4BB\	4b\)	.
16D#/	.	.	.
16F#/	.	.	.
16B/	.	.	.
16F#/	8ryy	8r	.
16D#/JJ	.	.	.
=21	=21	=21	=21
16BB/LL	4BB\	4.a#Xtt/	.
16Cn/	.	.	.
16E/	.	.	.
16A#X/	.	.	.
16E/	8ryy	.	.
16C/JJ	.	.	.
16BB/LL	4BB\	4a#/	.
16C/	.	.	.
16E/	.	.	.
16A#/	.	.	.
.	.	(>16qqg#/LL	.
.	.	16qqa#/JJ	.
16E/	8ryy	16ggn^\LL)	.
16C/JJ	.	16a#\JJ	.
*v	*v	*	*
!!LO:LB:g=original
=22	=22	=22
!LO:MO:null:mod=*ped	!LO:MO:mod=*null"null	!
*	*ped	*
8B 8BB\	8b\	.
8d#>\L	8f#/L	.
8e>\J	8g#/J	.
!	!LO:MO:mod=!LO&colon;TX&colon;a&colon;i&colon;t=rall.	!
!	!LO:TX:b:i:t=rallen	!
8f#>\L	8an/L	>
8e>\	8g#/	.
8B>\J	8f#/J	]
!LO:MO:null:mod=*Xped	!LO:MO:mod=*null"null	!
*	*Xped	*
=23	=23	=23
!LO:MO:null:mod=*ped	!LO:MO:mod=*null"null	!
*	*ped	*
!	!LO:TX:a:i:t=à. t.:mod=a tempo	!
8EE/	8e/L	.
8eL 8B 8G#\	8g#/	.
8eJ 8B 8G#\	8b/J	.
8eL 8B 8G#\	4ee^\	.
8e 8B 8G#\	.	.
8eJ 8B 8G#\	8dd#\	.
=24	=24	=24
8AA/	(4.dd#\	.
8d#L 8A\	.	.
8d#J 8A\	.	.
8c#L 8A\	4cc#\)	.
!LO:MO:null:mod=*Xped	!LO:MO:mod=*null"null	!
*	*Xped	*
8c# 8A\	.	.
8c#J 8A\	8r	.
=25	=25	=25
!LO:MO:null:mod=*ped	!LO:MO:mod=*null"null	!
*	*ped	*
8BBB/	8d#/L	rf
8BL 8F# 8D#\	8f#/J	.
.	8qa/	.
8BJ 8F# 8D#\	16aa\LL	.
.	16gg#\JJ	.
!	!LO:TUP:a:problem=klamra łukowa	!
8DD#/	48ff#\LLL	.
.	48gg#\	.
.	48ff#\	.
.	48ee\	.
.	48ff#\	.
.	48ee\JJJ	.
!LO:MO:null:mod=*Xped	!LO:MO:mod=*null"null	!
*	*Xped	*
!	!LO:TUP:a:problem=klamra łukowa	!
8BL 8F# 8D#\	48dd#\LLL	.
.	48ee\	.
.	48dd#\	.
.	48cc#\	.
.	48dd#\	.
.	48cc#\JJJ	.
!	!LO:TUP:b:problem=klamra łukowa	!
8BJ 8F# 8D#\	48b/LLL	.
.	48cc#/	.
.	48b/	.
.	48a/	.
.	48b/	.
.	48a/JJJ	.
=26	=26	=26
8EE/	(4.f##X^/	.
8BL 8G# 8E\	.	.
8BJ 8G# 8E\	.	.
8BL 8G# 8E\	4g#/)	.
8B 8G# 8E\	.	.
8BJ 8G# 8E\	8r	.
!!LO:LB:g=original
=27	=27	=27
!LO:MO:null:mod=*ped	!LO:MO:mod=*null"null	!
*	*ped	*
8GG#/	8g#\L	.
8eL 8B 8G#\	8b\	.
8eJ 8B 8G#\	8ee\J	.
.	16qqee/LL	.
.	16qqff#/JJ	.
8eL 8B 8G#\	8gg#^\L	.
8e 8B 8G#\	8ff#\	.
8eJ 8B 8G#\	8ee\J	.
!LO:MO:null:mod=*Xped	!LO:MO:mod=*null"null	!
*	*Xped	*
=28	=28	=28
8AA/	8.ff#^\L	.
8f#L 8c# 8A\	.	.
.	16ee\L	.
8f#J 8c# 8A\	16dd#\	.
.	16cc#\JJ	.
8f#L 8c# 8A\	16dd#^/LL	.
.	16cc#/	.
8f# 8c# 8A\	16b/	.
.	16a/	.
8f#J 8c# 8A\	16g#t</	.
.	16f#/JJ	.
=29	=29	=29
8BB/	8cc#/L	.
8g#>L 8e>\	8b/	.
8g#>J 8e>\	8b/J	.
!	!LO:TX:t=P:problem=przekreślony obiegnik	!
8AA/	8.bSSS/L	.
8a>L 8f#> 8d#>\	.	.
.	32b/LL	.
.	32cc#/	.
8a>J 8f#> 8d#>\	32dd#/	.
.	32ee/	.
.	32ff#/	.
.	32gg#/JJJ	.
=30	=30	=30
8GG#\	[8aa\L	.
8eL 8B 8G#\	32aa\LL]	.
.	32gg#\	.
.	32ff#\	.
.	32ee\	.
8eJ 8B 8G#\	32dd#\	.
.	32ee\	.
.	32ff#\	.
.	32ee\JJJ	.
!	!LO:TUP:a:problem=klamra łukowa	!
8AA\	48dd#\LLL	.
.	48cc#\	.
.	48b#X\	.
.	48cc#\	.
.	48dd#\	.
.	48cc#\JJJ	.
!	!LO:TUP:b:problem=klamra łukowa	!
8f#L 8c# 8A\	48bn/LLL	.
.	48a/	.
.	48g#/	.
.	48a/	.
.	48b/	.
.	48a/JJJ	.
!	!LO:TX:t=P:problem=mixed beam	!
!	!LO:TUP:b:problem=klamra łukowa	!
8f#J 8c# 8A\	48g#/LLL	.
.	48f#/	.
.	48e#X/	.
.	48f#/	.
.	48aa^>\	.
!	!LO:MO:mod=!null:null	!
*	*ped	*
.	48ff#\JJJ	.
!!LO:PB:g=original
=31	=31	=31
!LO:MO:null:mod=*ped	!LO:MO:mod=*null"null	!
*	*ped	*
.	8qb/	.
8BB/	8bb\	f
.	8qbb/	.
*	*Xtuplet	*
*	*8va	*
!	!LO:TX:a:t=P:problem:8va	!
8g#L 8e 8B\	8bbb\L	.
8g#J 8e 8B\	56aaa#X\LL	.
.	56aaan\	.
.	56ggg#\	.
.	56fff#\	.
.	56eee\	.
.	56ddd#\	.
.	56ccc#\JJJ	.
*	*X8va	*
!	!LO:TX:a:i:t=loco	!
8BB/	64bb\LLLL	.
.	64aa#X\	.
.	64aan\	.
.	64gg#\	.
.	64ff#\	.
.	64ee\	.
.	64dd#\	.
.	64cc#\JJJJ	.
*clefG2	*	*
16a 16f# 16B/	64b/LLLL	.
.	64a#X/	.
.	64an/	.
.	64g#/	.
16r	64f#/	.
.	64e/	.
.	64d#/	.
.	64c#/JJJJ	.
*clefF4	*	*
16A 16F# 16BB\	32B</LLL	.
.	32A</	.
16r	32F#</	.
.	32G#</JJJ	.
=32	=32	=32
4EE\	8E</	.
.	8b\L	.
!	!LO:TX:t=P:problem=przekreślony obiegnik	!
8r	8eesSSs\J	.
4e: 4B: 4G#: 4E:\	8gg#^\L	.
.	8ee\	.
!	!LO:TX:t=P:problem=przekreślony obiegnik	!
8r	8bsSSS\J	.
=33	=33	=33
4E: 4BB: 4GG#: 4EE:/	8.ee^\L	.
.	16b\K	.
!	!LO:TX:t=P:problem=przekreślony obiegnik	!
8r	8g#sSsS\J	.
!	!	!LO:DY:rj
(<8e`>\L	(8ee`>\L	f
8B`>\	8b`>\	.
8G#`>\J)	8g#`>\J)	.
!!LO:LB:g=original
=34	=34	=34
!LO:MO:null:mod=*ped	!LO:MO:mod=*null"null	!
*	*ped	*
4E\	32e/LLL	.
.	(32B/	.
.	32e/	.
.	32g#/JJJ)	.
.	32b`</LLL	.
.	(32e/	.
.	32g#/	.
.	32b/JJJ)	.
8r	32ee`>\LLL	.
.	(32g#\	.
.	32b\	.
.	32ee\JJJ)	.
!	!LO:TX:b:t=a per-den-do-si:exd=ud:problem=text with extention lines	!LO:DY:rj
4r	32gg#\LLL	pp
.	32b\	.
.	32ee\	.
.	32gg#\JJJ	.
.	32bb\LLL	.
.	32ee\	.
.	32gg#\	.
.	32bb\JJJ	.
8r	32eee\LLL	.
.	32gg#\	.
.	32bb\	.
.	32ggg#\JJJ	.
=35	=35	=35
4r	4eee\	.
8BB/	8r	.
4EE/	4r	.
8r;	8r;	.
=36||	=36||	=36||
8qDD#/	.	.
*	*^	*
!	!	!LO:MO:mod=16G#<\LL	!
4.EE\	8B</L	16G#<\LL	.
!	!	!LO:MO:mod=16E<\	!
.	.	16E<\	.
!	!	!LO:MO:mod=16B<\	!
.	8e/	16B<\	.
!	!	!LO:MO:mod=16G#<\	!
.	.	16G#<\	.
!	!	!LO:MO:mod=16e\	!
.	8g#/J	16e\	.
!	!	!LO:MO:mod=16B<\JJ	!
.	.	16B<\JJ	.
!	!LO:TX:b:t=ben mar_ ca_ to:ext=ud:problem=text with extention lines	!	!
8qDD#/	.	.	.
4EE\	4b/	16g#\LL	.
.	.	16e\	.
.	.	16d#\	.
.	.	16e\	.
8qDD#/	.	.	.
8EE\	8b/	16g#\	.
.	.	16e\JJ	.
!!LO:LB:g=original
=37	=37	=37	=37
8qDD#/	.	.	.
8.EE/L	4b/	16g#\LL	.
.	.	16e\	.
.	.	16d#\	.
16GG#/L	.	16e\	.
16AA/	8ee/	16g#\	.
16AA#X/JJ	.	16e\JJ	.
8.BB/L	4b/	16g#\LL	.
.	.	16B\	.
.	.	16A#X\	.
16C#`</L	.	16B\	.
16D#`</	8a/	16f#\	.
16BB`</JJ	.	16B\JJ	.
=38	=38	=38	=38
4E\	4g#/	16e\LL	.
.	.	16B\	.
.	.	16A#X\	.
.	.	16B\	.
8C#/	8g#/	16e\	.
.	.	16c#\JJ	.
8AA`</L	8a/L	16f#\LL	.
.	.	16c#\	.
8GG#`</	8b/	16g#\	.
.	.	16c#\	.
8FF#`</J	8cc#/J	16a#y\	.
.	.	16c#\JJ	.
=39	=39	=39	=39
4.BB/	4g#/	16e\LL	.
.	.	16B\	.
.	.	16A#X\	.
.	.	16B\JJ	.
.	16an^/LL	8e\	.
.	16g#/JJ	.	.
4BBB/	4f#/	16d#\LL	.
.	.	16B\	.
.	.	16A#X\	.
.	.	16B\JJ	.
8r	16dd#^/LL	8f#\	.
.	16cc#/JJ	.	.
*	*v	*v	*
=40	=40	=40
*^	*	*
16BB/LL	8DD#\L	8bL 8d#/	.
16FF#/	.	.	.
16D#/	8FF#\	8b 8d#/	.
16BB/	.	.	.
16F#/	8BB\J	8dd#J 8f#/	.
16D#/JJ	.	.	.
16F#/LL	8BB#XL 8GG#\	8b#XL 8d#/	rf
16D#/	.	.	.
16G#/	8D# 8BB#\	8b# 8d#/	.
16F#/	.	.	.
16B#X/	8F#J 8D#\	8dd#J 8f#/	.
16G#/JJ	.	.	.
*v	*v	*	*
!!LO:LB:g=original
=41	=41	=41
16c#: 16G#: 16E: 16C#:\	4cc# 4e/	.
16EE/LL	.	.
16GG#/	.	.
16C#/	.	.
16E/	8cc# 8e/	.
16G#/JJ	.	.
!	!	!LO:MO:mod=!null:null
!	!	!LO:HP:t=cres
16c#\LL	8cc#L 8e/	<
16G#\	.	.
16E\	8dd# 8f#/	.
16C#\	.	.
16GG#\	8eeJ 8g#/	.
16EE\JJ	.	.
=42	=42	=42
.	32qqf#/LLL	.
8qFFF#/	32qqb/JJJ	.
16FF#`</	16ee\LL	f
16FF#/LL	16dd#\	.
16GG#/	16cc#\	.
16AA#X/	16b\	.
16BB/	16a#X\	.
16C#/JJ	16g#\JJ	.
16D#/	8f#/L	.
16EE/LL	.	.
16DD#/	8g#/	.
16CC#/	.	.
16AAA#X/	8cc#J 8f# 8e/	.
16FFF#/JJ	.	.
=43	=43	=43
16BBB/	16b 16f# 16d#/	.
!	!LO:MO:mod=(16aa#X/LL	!
16ryy	(16aa#X/LL	.
16ryy	16bb/JJ)	.
(>16ee#X>\LL	16ryy	.
16ff#>\JJ)	16ryy	.
!	!LO:MO:mod=(16cc##X/LL	!
16ryy	(16cc##X/LL	.
16ryy	16dd#/)JJ	.
(>16a#X>\LL	16ryy	.
16b>\JJ)	16ryy	.
16ryy	(16e#X/LL	.
8ryy	16f#/	.
.	16d#/JJ)	.
!!LO:LB:g=original
=44	=44	=44
!LO:MO:null:mod=*ped	!LO:MO:mod=*null"null	!
*	*ped	*
8B 8BB\	16e\LL	.
.	16gn\	.
16r	16b\JJ	.
!LO:MO:mod=16ccn>/	!	!
16ccn>/	16r	.
!LO:TX:a:i:t=m.g.:problem:m.g. nad powinno wyświetlać się nad górnym systemem	!	!
!LO:MO:mod=16e>\LL	!LO:MO:mod=8r<	!
16e>\LL	8r<	.
!LO:MO:mod=16gny>\JJ	!	!
16gny>\JJ	.	.
.	16qqcc#/LL	.
!LO:TX:a:i:t=con espres:mod=con espress.	!	!
.	16qqdd#/JJ	.
16e>\LL	8ee/L	.
16g>ny\	.	.
16cc>\	8ddn/	.
16e>\	.	.
16g>\	8ccn/J	.
16cc>\JJ	.	.
!LO:MO:null:mod=*Xped	!LO:MO:mod=*null"null	!
*	*Xped	*
=45	=45	=45
8qBB/	.	.
4.cn\	16d#\LL	.
.	16f#\	.
.	16ccn\	rf
.	16d#\	.
.	16f#\	.
.	16cc\JJ	.
16D#`\LL	16d#\LL	.
16A#X\	16f#\	.
16B\	16b\	.
16D#`>\	16d#\	.
(16F#\	16f#\	.
16B\JJ)	16b\JJ	.
=46	=46	=46
!LO:MO:null:mod=*ped	!LO:MO:mod=*null"null	!
*	*ped	*
8B 8BB\	16e\LL	.
.	16gn\	.
16r	16b\JJ	.
!LO:MO:mod=16ccn>/	!	!
16ccn>/	16r	.
!LO:TX:a:i:t=m.g.:problem:m.g. nad powinno wyświetlać się nad górnym systemem	!	!
!LO:MO:mod=16e>\LL	!LO:MO:mod=8r<	!
16e\LL	8r<	.
!LO:MO:mod=16gny>\JJ	!	!
16g\JJ	.	.
.	16qqcc#/LL	.
.	16qqdd#/JJ	.
16e>\LL	8.ee/L	.
16g>ny\	.	.
16cc>\	.	.
16e>\	16ddn/K	.
16g>\	8cc#/J	.
16cc>\JJ	.	.
!LO:MO:null:mod=*Xped	!LO:MO:mod=*null"null	!
*	*Xped	*
!!LO:LB:g=original
=47	=47	=47
8qBB/	.	.
4.cn\	16d#\LL	.
.	16f#\	.
.	16ccn\	sf
.	16d#\	.
.	16f#\	.
.	16cc\JJ	.
16BB\LL	16d#\LL	.
(16A#X\	16f#\	.
16B\)	16b\	.
16E#X`>\	16d#\	.
(16F#\	16f#\	.
16D#\JJ)	16b\JJ	.
=48	=48	=48
!	!	!LO:MO:mod=!null:null
!	!LO:TX:a:i:t= :mod=ritard.	!LO:HP:t=cres
16BB\	16cn\LL	<
16BBB/LL	16e\	.
16BB/	16a#X\	.
16Cn/	16c\	.
16E/	16e\	.
16G#/JJ	16a#\JJ	.
!LO:TX:a:i:t=e ritardando:mod=	!	!
!	!LO:MO:mod=16c\LL	!
8A#X\	16c\LL	.
!	!LO:MO:mod=16e\	!
.	16e\	.
!LO:TX:a:i:t=m.g.:problem:m.g. nad powinno wyświetlać się nad górnym systemem	!	!
!LO:MO:mod=8ee>/L	!LO:MO:mod=16a#\	!
8ee>/L	16a#\	.
!	!LO:MO:mod=16c\	!
.	16c\	.
!	!LO:MO:mod=16e\	!
8aa#X>/J	16e\	.
!	!LO:MO:mod=16a#\JJ	!
.	16a#\JJ	.
=49	=49	=49
!LO:MO:null:mod=*ped	!LO:MO:mod=*null"null	!
*	*ped	*
!LO:MO:mod=2.bb>T>/	!LO:MO:mod=8bL 8B\	!
2.bb>T>/	8bL 8B\	.
.	8f# 8d#\	.
.	8g#J 8e\	.
!	!LO:MO:mod=8anL 8f#\	!
.	8anL 8f#\	.
.	8g# 8e\	.
.	8f#J 8B\	.
!LO:MO:mod=32qqaa#X>/LLL	!	!
32qqaa#X>/LLL	.	.
!LO:MO:mod=32qqbb>/	!	!
32qqbb>/	.	.
!LO:MO:mod=32qqccc#>/	!	!
32qqccc#>/	.	.
!LO:MO:mod=32qqbb>/JJJ	!	!
32qqbb>/JJJ	.	.
!LO:MO:null:mod=*Xped	!LO:MO:mod=*null"null	!
*	*Xped	*
=50	=50	=50
!	!LO:MO:mod=!LO&colon;TX&colon;a&colon;i&colon;t=a tempo	!
!	!LO:TX:b:i:t=à tempo	!
!LO:MO:mod=8ee>/	!LO:MO:mod=16d#\LL	!
8ee>/	16d#\LL	.
.	16e\	.
8rff>	16g#\	.
.	16b\JJ	.
8G# 8GG#\	16ee:LL 16b: 16e:\	rf
.	16dd#\JJ	.
16AA\LL	4dd# 4a 4e/	.
16C#\	.	.
16E\	.	.
16A\	.	.
16d#^\	8cc#/<	.
16c#\JJ	.	.
!!LO:LB:g=original
=51	=51	=51
4r	16A#X/LL	.
.	16B/	.
.	16d#/	.
.	16f#/JJ	.
8D# 8DD#/	16cc#:LL 16f#: 16B:/	rf
.	16b/JJ	.
16EE\LL	4a 4d# 4B/	.
16GG#\	.	.
16BB\	.	.
16E\	.	.
16An^\	8g#/	.
16G#\JJ	.	.
=52	=52	=52
4r	16d#/LL	.
.	16e/	.
.	16g#/	.
.	16b/JJ	.
8G# 8GG#\	(>16ff#:LL 16b: 16e:/	rf
.	16ee/JJ)	.
4A 4AA\	(>16dd#:LL 16a: 16e:/	.
.	16cc#/JJ)	.
.	(>16b:LL 16f#: 16c#:/	.
.	16a/JJ)	.
8AA/	16g#:LL 16c#: 16A:/	.
.	16f#/JJ	.
=53	=53	=53
4.ryy	(16cc#LL 16g# 16e/	.
.	16b/JJ)	.
.	(16bLL 16g# 16B/	.
.	16f#/JJ)	.
.	(16g#LL 16d# 16A/	.
.	16f#/JJ)	.
16EE`>\LL	(8f#L 8d# 8A/	.
(16D#\	.	.
16E\)	8eJ 8B 8G#/)	.
16AA#X`>\	.	.
(16BB\	8r	.
16GG#\JJ)	.	.
!!LO:PB:g=original
=54	=54	=54
!	!	!LO:DY:rj
4.C# 4.CC#/	16B/LL	f
.	16c#/	.
.	16e#X/	.
.	16g#/	.
.	16ddn^>/	.
.	16cc#/JJ	.
16FF#\LL	4b 4f# 4c#/	.
16AA\	.	.
16C#\	.	.
16F#\	.	.
16cn^\	8a/	.
16B\JJ	.	.
=55	=55	=55
4r	16A#X/LL	.
.	16B/	.
.	16d#/	.
.	16f#/JJ	.
8D# 8DD#/	16cc#:LL 16f#: 16B^:/	.
.	16b/JJ	.
16EE\LL	4a 4d# 4B/	.
16GG#\	.	.
16BB\	.	.
16E\	.	.
16A^\	8g#/	.
16G#\JJ	.	.
=56	=56	=56
*	*tuplet	*
!	!LO:TUP:b:problem=klamra łukowa	!
4GG#/	24d#/LL	.
.	24e/	.
.	24g#/JJ	.
.	16b/LL	.
.	16gg#: 16b: 16e:^</	.
8G# 8GG#\	16ff#/	.
.	16ee/JJ	.
4A 4AA\	(16dd#LL 16a 16e/	.
.	16cc#/JJ)	.
.	(16bLL 16f# 16c#/	.
.	16a/JJ)	.
8AA/	(16g#LL 16c# 16A/	.
.	16f#/JJ)	.
!!LO:LB:g=original
=57	=57	=57
*	*^	*
!	!LO:TX:b:i:t=man can do:ext=s:problem=text with extention lines:mod=mancando	!	!
4BB/	16cc#LL 16g#/	8e\	.
.	16b/JJ	.	.
.	16bLL 16g#/	8B\	.
.	16e/JJ	.	.
8BBB/	16g#LL 16e/	8G#\	.
.	16B/JJ	.	.
4BB/	4a 4d#/	8ryy	.
.	.	4ryy	.
!	!LO:MO:mod=!LO&colon;TX&colon;a&colon;i&colon;t=a tempo	!	!
!	!LO:TX:b:i:t=à tempo	!	!
8F# 8BB\	8d# 8A/	.	.
*	*v	*v	*
=58	=58	=58
8EE/	8eL 8G#/	.
8eL 8B 8G#\	8g#/	.
8eJ 8B 8G#\	8b/J	.
!	!LO:MO:mod=*null:null	!
*	*Xbrackettup	*
!	!LO:TUP:a:problem=klamra łukowa	!
8eL 8B 8G#\	24ee\	.
.	24bb\LL	.
.	24aa#X\JJ	.
!	!LO:TUP:a:problem=klamra łukowa	!
8e 8B 8G#\	24bb\LL	.
.	24gg#\	.
.	24ff##X\JJ	.
!	!LO:TUP:a:problem=klamra łukowa	!
8eJ 8B 8G#\	24gg#\LL	.
.	24ff#X\	.
.	24ee\JJ	.
=59	=59	=59
8AA/	(4.dd#\	.
8d#L 8A\	.	.
8d#J 8A\	.	.
8c#L 8A\	4cc#\)	.
8c# 8A\	.	.
8c#J 8A\	8r	.
=60	=60	=60
.	16qqff#/LL	.
!	!LO:TX:b:i:t=scherz:mod=scherzando	!
!	!LO:TX:a:t=P:problem:8va	!
.	16qqgg#/JJ	.
*	*Xtuplet	*
*	*8va	*
8BBB/	24aaa`\LL	.
.	(24ggg#\	.
.	24fff#\JJ)	.
8BL 8F# 8D#\	24eee`>\LL	.
.	(24ddd#\	.
.	24ccc#\JJ)	.
*	*X8va	*
!	!LO:TX:a:i:t=loco	!
8BJ 8F# 8D#\	24bb\LL	.
.	(24aa\	.
.	24gg#\JJ)	.
8DD#/	24ff#`>\LL	.
.	(24ee\	.
.	24dd#\JJ)	.
8BL 8F# 8D#\	24cc#\LL	.
.	16qqcc#/	.
.	(24b\	.
.	24a#X\JJ	.
8BJ 8F# 8D#\	24b\LL	.
.	24cc#\	.
.	24an\JJ)	.
!!LO:LB:g=original
=61	=61	=61
8EE/	(<4.f##X^>/	.
8BL 8G# 8E\	.	.
8BJ 8G# 8E\	.	.
*tremolo	*	*
8BL 8G# 8E\	4g#/)	.
8B 8G# 8E\	.	.
8BJ 8G# 8E\	8r	.
*Xtremolo	*	*
=62	=62	=62
*	*^	*
4G# 4GG#\	8b^/	16d#\LL	.
.	.	16e\JJ	.
!	!	!	!LO:DY:rj
.	8ee^/	16f##X\LL	f
.	.	16g#\JJ	.
8e: 8B: 8G#:\	8gg#^/	16a#X\LL	.
.	.	16b\JJ	.
4G# 4GG#\	8bb/	16dd#\LL	.
.	.	16ee\JJ	.
.	16eeeLL 16gg#\	4ryy	.
.	16ggg# 16bb\	.	.
8e: 8B: 8G#:\	16fff# 16aa\	.	.
.	16eeeJJ 16gg#\	.	.
=63	=63	=63	=63
16A\	16ddd#LL 16ff#\	4.rAyy	.
*clefG2	*	*	*
16bLL 16g# 16c#/	16ccc# 16ee#X 16cc#^<\	.	.
16a 16f#/	16aa 16ff#\	.	.
16a 16f# 16B/	16bb 16dd# 16b\	.	.
16g# 16e/	16gg# 16een\	.	.
*clefF4	*	*	*
16G#JJ 16GG#/	16eeJJ 16b 16e\	.	.
4A 4AA\	16dd#/LL	8f#\L	.
.	16cc# 16a/	.	.
.	16b/	8c#\	.
.	16a 16f#/	.	.
8AA/	16g#/	8A\J	.
.	16f#JJ 16c#/	.	.
!!LO:LB:g=original
=64	=64	=64	=64
!	!LO:TX:a:t=slen_tan_do:ext=ud:problem=text with extention lines	!	!
4BB 4BBB/	4b 4g# 4e/	16A#X\LL	.
.	.	16B\	.
.	.	16A#\	.
.	.	16B\	.
8BB 8BBB/	8b 8g# 8e/	16A#\	.
.	.	16B\JJ	.
4BB 4BBB/	8bL 8g# 8e/	16A#\LL	.
.	.	16B\	.
.	8a 8f#/	16cn\	.
.	.	16B\	.
8BB 8BBB/	8f#J 8d#/	16An\	.
.	.	16B\JJ	.
*	*v	*v	*
=65||	=65||	=65||
*ok[cngndnf#]	*ok[cngndnf#]	*
*k[f#]	*k[f#]	*
*^	*	*
!	!	!LO:TX:b:i:t=dol:mod=dolce	!
!	!	!LO:TX:a:i:t=Minore	!
8GG/L	4.EE\	8.G/L	.
8BB/	.	.	.
.	.	16B/L	.
8E/J	.	16e/	.
.	.	16g/JJ	.
8G/L	4.E\	4b/	.
8B/	.	.	.
8e/J	.	8b/	.
=66	=66	=66	=66
!	!	!LO:TX:t=P:problem=przekreślony górny obiegnik	!
8G/L	4.E\	8.bSsS\L	.
8B/	.	.	.
.	.	64ee\LLL	.
.	.	64gg\	.
.	.	64ff#\	.
.	.	64aa\	.
8e/J	.	64gg\	.
.	.	64ee\	.
.	.	64b\	.
.	.	64a#X\	.
.	.	64cc\	.
.	.	64b\	.
.	.	64g\JJJJ	.
!	!	!LO:TX:t=P:problem=niepełna miara taktu	!
.	.	64ryy	.
8E/L	4.E\	4f#/	.
8G/	.	.	.
8B/J	.	8e/	.
!!LO:LB:g=original
=67	=67	=67	=67
8E/L	4.C\	8e/L	.
8G/	.	8f#/	.
8c/J	.	8g/J	.
8C/L	4.AA\	[<8f#/L	.
8F#/	.	32f#/LL]	.
.	.	32g/	.
.	.	32a/	.
.	.	32b/	.
8A/J	.	32dd/	.
.	.	32cc/	.
.	.	32c^/	.
.	.	32f#/JJJ	.
=68	=68	=68	=68
8E/L	4.BB\	(>4.e/	.
8G/	.	.	.
8B/J	.	.	.
8D#X/L	4.BB\	4d#X/)	.
8F#/	.	.	.
8A/J	.	8r	.
*v	*v	*	*
=69	=69	=69
8B 8BB\	4b/	.
!LO:TX:t=P:problem=korekta ołówkiem	!	!
8dL 8B\	.	.
8dJ 8B\	8b/	.
8F#X 8FF#X/	4.cc#Xtt\	.
8eL 8c#X 8A#X 8F#\	.	.
8eJ 8c# 8A# 8F#\	.	.
.	16qqb/LL	.
.	16qqcc#/JJ	.
=70	=70	=70
8G 8GG\	4ee^\	.
8dL 8B\	.	.
8dJ 8B\	8dd\	.
8E 8EE/	32cc#X\LLL	.
.	32ee\	.
.	32cc#\	.
.	32gg\	.
8c#XL 8G 8E\	32cc#\	.
.	32ccc#X\	.
.	32cc#\	.
.	32eee\	.
8c#J 8G 8E\	32cc#\	.
.	32ggg\	.
.	32cc#\	.
*	*8va	*
!	!LO:TX:a:t=P:problem:8va	!
.	[32aaa#X\JJJ	.
!!LO:LB:g=original
=71	=71	=71
8FF#/	32aaa#\LLL]	.
.	32bbb\	.
.	32eee#X\	.
.	32fff#\	.
8dL 8B 8F#\	32ccc#X\	.
.	32eeen\	.
.	32ddd\	.
*	*X8va	*
!	!LO:TX:a:i:t=loco	!
.	32aa#X\	.
8dJ 8B 8F#\	32ccc#\	.
.	32bb\	.
.	32ee#X\	.
.	32ff#\JJJ	.
8FF#/	32gg/LLL	f
.	32cc#X/	.
.	32gg/	.
.	32a#X/	.
8e: 8c#X: 8A#X: 8F#:\	32gg/	.
.	32g/	.
.	32gg/	.
.	32e/	.
8E: 8C#X: 8AA#X: 8FF#X:/	32ff#/	.
.	32c#X/	.
.	32eeny/	.
.	32A#X/JJJ	.
=72	=72	=72
*^	*	*
16BB/LL	4.BB\	4B/	.
16D/	.	.	.
16F#/	.	.	.
16B/	.	.	.
16F#/	.	8r	.
16D/JJ	.	.	.
16BB/LL	4.BB\	4r	.
16D/	.	.	.
16F#/	.	.	.
16B/	.	.	.
16F#/	.	8b\	.
16D/JJ	.	.	.
!!LO:LB:g=original
=73	=73	=73	=73
!	!	!LO:TX:a:i:t=con fuoco	!
16BB/LL	4.BB\	16cc\	.
.	.	8qd/	.
16E/	.	32c/LLL	.
.	.	32B/JJJ	.
16G/	.	32c/LLL	.
.	.	32e/	.
16c/	.	32g/	.
.	.	32cc/JJJ	.
16G/	.	32ee\LLL	.
.	.	32gg\	.
16E/JJ	.	32ccc\	.
.	.	16qdd/	.
.	.	64cc\L	.
.	.	64b\JJJJ	.
16BB/LL	4.BB\	32cc\LLL	.
.	.	32ee\	.
16E/	.	32gg\	.
.	.	32ccc\	.
*	*	*8va	*
!	!	!LO:TX:a:t=P:problem:8va	!
16G/	.	32eee\	.
.	.	32ggg\	.
16c/	.	32cccc\	.
.	.	32bbb\	.
16G/	.	32cccc\	.
.	.	32ggg\	.
16E/JJ	.	32eee\	.
.	.	32ccc\JJJ	.
*v	*v	*	*
*	*X8va	*
=74	=74	=74
*^	*	*
!	!	!LO:TX:a:i:t=loco	!
16BB/LL	4.BB\	4.ccc^<\	.
16D#X/	.	.	.
16F#/	.	.	.
16c/	.	.	.
16F#/	.	.	.
16D#/JJ	.	.	.
16BB/LL	4.BB\	4bb\	.
16D#/	.	.	.
16F#/	.	.	.
16B/	.	.	.
16F#/	.	8r	.
16D#/JJ	.	.	.
!!LO:PB:g=original
=75	=75	=75	=75
16BB/LL	4.BB\	32ccc\LLL	.
.	.	32gg\	.
.	.	16qaa/	.
16E/	.	32gg^\	.
.	.	32ff#\JJJ	.
16G/	.	32gg\LLL	.
.	.	32ee\	.
.	.	16qff#/	.
16c/	.	32ee^\	.
.	.	32dd#X\JJJ	.
16G/	.	32ee\LLL	.
.	.	32cc\	.
.	.	16qddn/	.
16E/JJ	.	32cc^\	.
.	.	32b\JJJ	.
16BB/LL	4.BB\	32cc/LLL	.
.	.	32g/	.
.	.	16qa/	.
16E/	.	32g^/	.
.	.	32f#/JJJ	.
16G/	.	32g/LLL	.
.	.	32e/	.
.	.	16qf#/	.
16c/	.	32e/	.
.	.	32d#X/JJJ	.
16G/	.	16e/LL	.
16E/JJ	.	32dn/L	.
.	.	32c/JJJ	.
=76	=76	=76	=76
16BB/LL	4.BB\	4.c^>/	.
16D#X/	.	.	.
16F#/	.	.	.
16C/	.	.	.
16F#/	.	.	.
16D#/JJ	.	.	.
16BB/LL	4.BB\	4B/	.
16D#/	.	.	.
16F#/	.	.	.
16B/	.	.	.
16F#/	.	8r	.
16D#/JJ	.	.	.
*v	*v	*	*
=77	=77	=77
!LO:MO:null:mod=*ped	!	!
*	*	*
!	!LO:MO:mod=*null"null	!
*tremolo	*ped	*
!	!	!LO:DY:t=trem. e f
32CC/LLL	8A#X/	f
32C/	.	.
32CC/	.	.
32C/	.	.
32CC/	8eeL 8a#X 8e\	.
32C/	.	.
32CC/	.	.
32C/	.	.
32CC/	8ff#XJ 8a# 8e\	.
32C/	.	.
32CC/	.	.
32C/	.	.
32CC/	8ggL 8a# 8e\	.
32C/	.	.
32CC/	.	.
32C/	.	.
32CC/	8ff# 8a# 8e\	.
32C/	.	.
32CC/	.	.
32C/	.	.
32CC/	8eeJ 8a# 8e\	.
32C/	.	.
32CC/	.	.
32C/JJJ	.	.
!!LO:LB:g=original
=78	=78	=78
32BBB/LLL	16dd#XLL 16b 16d#X/	.
32BB/	.	.
32BBB/	16B/JJ	.
32BB/	.	.
!	!LO:TX:b:t=per_den_do_si:ext=ud:problem=text with extention lines	!
!	!LO:TX:t=P:problem=mixed beam	!
32BBB/	16ff#XLL 16dd#X`>\	.
32BB/	.	.
32BBB/	16B/JJ	.
32BB/	.	.
!	!LO:TX:t=P:problem=mixed beam	!
32BBB/	16ggLL 16ee`>\	.
32BB/	.	.
32BBB/	16B/JJ	.
32BB/	.	.
!	!LO:TX:t=P:problem=mixed beam	!
32BBB/	16aaLL 16ff#`>\	.
32BB/	.	.
32BBB/	16B/JJ	.
32BB/	.	.
!	!LO:TX:t=P:problem=mixed beam	!
32BBB/	16ggLL 16ee`>\	.
32BB/	.	.
32BBB/	16B/JJ	.
32BB/	.	.
!	!LO:TX:t=P:problem=mixed beam	!
32BBB/	16ff#LL 16dd#`>\	.
32BB/	.	.
32BBB/	16B;</JJ	.
32BB/JJJ	.	.
*Xtremolo	*	*
=79	=79	=79
!	!LO:MO:mod=!LO&colon;TX&colon;a&colon;B&colon;t=Più presto	!
!	!LO:TX:a:i:t=più presto	!
4EE\	(<16D#X</LL	.
.	16E</	.
.	16G</	.
.	16B</	.
8GG^>/	16e/	.
.	16g/JJ)	.
*	*tuplet	*
!LO:TX:a:i:t=leg:mod=legato	!LO:TUP:b:problem=klamra łukowa	!
4AA/	24b/LL	.
.	24e/	.
.	24ee/JJ	.
!	!LO:TUP:b:problem=klamra łukowa	!
.	48ddn/LLL	.
.	48cc/	.
.	48a/	.
.	48g#X/	.
.	48a/	.
.	48cc/JJJ	.
!	!LO:TUP:a:problem=klamra łukowa	!
8C^/	24ee\LL	.
.	24a^<\	.
.	24aa\JJ	.
!!LO:LB:g=original
=80	=80	=80
*	*Xtuplet	*
4D/	24ffn\	.
.	8qe/	.
.	24d/LL	.
.	24c#X/	.
.	24d/	.
.	24fn/	.
.	24a/JJ	.
8BB^/	24dd\LL	.
.	24d\	.
.	24gg\JJ	.
4C/	24ee\	.
.	8qd/	.
.	24cn/LL	rf
.	24B/	.
.	24c/	.
.	24e/	.
.	24a/JJ	.
8AA^/	24cc/LL	.
.	24A/	.
.	24ff/JJ	.
=81	=81	=81
4BB/	24dd\	.
.	16qqc/	.
.	24B/LL	.
.	24A#X/	.
.	24B/	.
.	24e/	.
.	24g#X/JJ	.
8GG#X/	24b/LL	.
.	24B/	.
.	24ee/JJ	.
4AA/	24cc/	.
.	16qfn/	.
.	24e/LL	.
.	24d#X/JJ	.
.	24e/LL	.
.	24ddn/	.
.	24cc/JJ	.
8D^>/	24d#/LL	.
.	24cc 24fn/	.
.	24b/JJ	.
!!LO:LB:g=original
=82	=82	=82
4E\	24c/	.
.	16qd/	.
.	24c/LL	.
.	24B/JJ	.
.	24c`</LL	.
.	(24b 24e/	.
.	24a/JJ)	.
8EE/	24B`</LL	.
.	(24a 24d/	.
.	24g#X/JJ)	.
*Xtuplet	*	*
24AA/	24a 24c/	.
24A\LL	24c/LL	.
24B\JJ	24d/JJ	.
!LO:TUP:a:problem=klamra łukowa	!	!
24c`>\LL	24e/LL	.
24c`>\	24e/	.
24c`>\JJ	24e/JJ	.
.	16qfn/	.
24c\LL	24e/LL	.
24B\	24d/	.
24A\JJ	24c/JJ	.
=83	=83	=83
*^	*^	*
!	!	!	!	!LO:DY:rj
4G\	4.rgyy	4b/	24e\LL	p
.	.	.	24B\	.
.	.	.	24B\JJ	.
.	.	.	24B\LL	.
.	.	.	24c\	.
.	.	.	[<24B\J	.
8D#X\	.	24aLL 24f#/	8B\J]	.
.	.	24b/	.	.
.	.	24a/JJ	.	.
24E\	24rbyy	24g/	24e\	.
!	!	!	!	!LO:DY:rj
24E/LL	12BB	24G/LL	24rAyy	f
24F#/JJ	.	24A/JJ	24rAyy	.
24G/LL	4BB\	24B/LL	4rAyy	.
24G/	.	24B/	.	.
24G/JJ	.	24B/JJ	.	.
.	.	16qc/	.	.
24G/LL	.	24B/LL	.	.
24F#/	.	24A/	.	.
24E/JJ	.	24G/JJ	.	.
*v	*v	*	*	*
!!LO:LB:g=original
=84	=84	=84	=84
!	!	!	!LO:DY:rj
4BB 4BBB/	4b 4d#X/	24B\LL	p
.	.	24B\	.
.	.	24B\JJ	.
.	.	24B\LL	.
.	.	24c\	.
.	.	[24B\JJ	.
8D#X 8DD#X/	24aLL 24f#/	8B\]	rf
.	(<24b/	.	.
.	24a/JJ)	.	.
24E 24EE/	24g/	24e\	.
24e>\LL	24g/LL	24ryy	.
24f#>\JJ	24a/JJ	24ryy	.
24g>\LL	24b/LL	4ryy	.
24g>\	24b/	.	.
24g>\JJ	24b/JJ	.	.
.	16qcc/	.	.
24g>\LL	24b/LL	.	.
24f#>\	24a/	.	.
24e>\JJ	24g/JJ	.	.
*	*v	*v	*
=85	=85	=85
24c 24C\	24ee 24g 24e/	sf
24c\LL	24e/LL	.
24d\JJ	24f#/JJ	.
24e\LL	24g/LL	p
24e\	24g/	.
24e\JJ	24g/JJ	.
.	16qa/	.
24e\LL	24g/LL	.
24d\	24f#/	.
24c\JJ	24e/JJ	.
24A 24AA\	24cc 24f# 24e 24c/	sf
24A\LL	24c/LL	.
24B\JJ	24d/JJ	.
24c\LL	24e/LL	.
24c\	24e/	.
24c\JJ	24e/JJ	.
.	16qf#/	.
24c\LL	24e/LL	.
24B\	24d/	.
24A\JJ	24c/JJ	.
!!LO:LB:g=original
=86	=86	=86
*^	*^	*
24G/LL	8BB\	24b 24e 24B/	8ryy	.
24G/	.	24B/LL	.	.
24G/JJ	.	24B/JJ	.	.
24G/LL	8BB\	8e/	24B\LL	.
24A/	.	.	24c\	.
24G/JJ	.	.	24B\JJ	.
24F#/LL	[8BB\	8d#X/	24A\LL	.
24G/	.	.	24B\	.
24F#/JJ	.	.	24A\JJ	.
16E/	16BB\]	24e 24G/	4.ryy	.
!	!	!LO:MO:mod=48aa#X/LLLL	!	!
.	.	48aa#X/LLLL	.	.
16ryy	16ryy	48bb/	.	.
.	.	48gg/	.	.
.	.	48ee/JJJJ	.	.
!LO:TX:a:i:t=m.g.:problem:m.g. nad powinno wyświetlać się nad górnym systemem	!	!	!	!
16qdd#X>/	.	.	.	.
16ee>\	8ryy	24ryy	.	.
.	.	48dd#X/LLLL	.	.
16ryy	.	48ee/	.	.
.	.	48b/	.	.
.	.	48g/JJJJ	.	.
!LO:TX:a:i:t=m.g.:problem:m.g. nad powinno wyświetlać się nad górnym systemem	!	!	!	!
16qa#X>/	.	.	.	.
16b>\	8ryy	24ryy	.	.
.	.	48a#X/LLLL	.	.
16ryy	.	48b/	.	.
.	.	48g/	.	.
.	.	48e/JJJJ	.	.
*	*	*v	*v	*
=87	=87	=87	=87
24B/	24BB\	24d#X/LL	.
24d#X/LL	[12B\	24f#/	.
24e/JJ	.	24g/JJ	.
24f#/LL	4B\]	24a/LL	.
24f#/	.	24a/	.
24f#/JJ	.	24a/JJ	.
.	.	16qb/	.
24f#/LL	.	24a/LL	.
24e/	.	24g/	.
24d#/JJ	.	24f#/JJ	.
!!LO:LB:g=original
=	=	=	=
*	*	*tuplet	*
!	!	!LO:TX:b:t=ac_ce_le_ran_do:ext=ud:problem=text with extention lines	!
!	!	!LO:TUP:b:problem=klamra łukowa	!
16g>/	4ryy	48gg/LLL	.
.	.	48aa/	.
.	.	48aa#X/	.
16ryy	.	48bb/	.
.	.	48gg/	.
.	.	48ee/JJJ	.
16qa#X>/	.	.	.
!	!	!LO:TUP:b	!
16b>\	.	48cc#X/LLL	.
.	.	48dd/	.
.	.	48dd#X/	.
16ryy	.	48ee/	.
.	.	48b/	.
.	.	48g/JJJ	.
16qf#X>/	.	.	.
!	!	!LO:TUP:b	!
16g>\	8ryy	48g#X/LLL	.
.	.	48a/	.
.	.	48a#X/	.
16ryy	.	48b/	.
.	.	48gn/	.
.	.	48e/JJJ	.
*v	*v	*	*
=88	=88	=88
*	*Xtuplet	*
24B 24BB\	24d#X/LL	.
24d#y>\LL	24f#/	.
24e>\JJ	24g/JJ	.
24f#>\LL	24a/LL	.
24f#>\	24a/	.
24f#>\JJ	24a/JJ	.
.	8qb/	.
24f#>\LL	24a/LL	.
24e>\	24g/	.
24d#>\JJ	24f#/JJ	.
24c 24C\	24ee 24g 24e/	.
24c\LL	24e/LL	f
24dn\JJ	24f#/JJ	.
.	16qa/	.
24e\LL	24g/LL	.
24d\	24f#/	.
24c\JJ	24e/JJ	.
!	!LO:TX:b:t=ritar_:ext=ud:problem=text with extention lines	!
8A 8AA\	24ccLL 24f# 24c/	.
.	24g/	.
.	24a/JJ	.
=89	=89	=89
*^	*	*
24G/	24BB\	24b 24e 24B/	.
24E/LL	24rGGyy	24G/LL	.
24F#/JJ	24rGGyy	24A/JJ	.
.	.	8qc/	.
24G/LL	8BB\	24B/LL	.
24F#/	.	24A/	.
24E/JJ	.	24G/JJ	.
24F#/LL	8BB\	24d#XLL 24A/	.
24G/	.	24B/	.
24F#/JJ	.	24A/JJ	.
4r	4ryy	4r	.
8r;	8ryy	8r;	.
*v	*v	*	*
!!LO:PB:g=original
!LO:MO:mod==90||	!LO:MO:mod==90||	!LO:MO:mod==90||
=90	=90	=90
*k[f#c#g#d#]	*k[f#c#g#d#]	*
!	!LO:MO:mod=!LO&colon;TX&colon;a&colon;i&colon;t=a tempo	!
!	!LO:TX:b:i:t=à tempo	!
4E 4EE\	16d#/LL	.
.	16e/	.
.	16g#/	.
.	16b/JJ	.
8G# 8GG#\	16ff#LL 16b 16e\	.
.	16ee\JJ	.
16AA\LL	4dd# 4a 4e/	.
16C#\	.	.
16E\	.	.
16A\	.	.
16d#\	8cc#\	.
16c#\JJ	.	.
=91	=91	=91
4r	16A#X/LL	.
.	16B/	.
.	16d#/	.
.	16f#/JJ	.
!	!LO:SIC:v:o=16cc#LL 16dn 16A#/	!
8BB 8BBB/	16cc#LL 16d# 16An/	.
.	16b/JJ	.
!	!LO:SIC:v:o=4a 4d 4B/	!
16EE/LL	4a 4d# 4B/	.
16GG#/	.	.
16BB/	.	.
16E/	.	.
16A/	8g#/	.
16G#/JJ	.	.
=92	=92	=92
4r	16d#/LL	.
.	16e/	.
.	16g#/	.
.	16b/JJ	.
8G# 8GG#\	16ff#LL 16b 16e/	.
.	16ee/JJ	.
4A 4AA\	16dd#LL 16a 16e/	.
.	16cc#/JJ	.
.	16bLL 16f# 16c#/	.
.	16a/JJ	.
8AA/	16g#LL 16c# 16A/	.
.	16f#/JJ	.
!!LO:LB:g=original
=93	=93	=93
4BB/	16cc#LL 16g# 16e/	.
.	16b/JJ	.
.	16bLL 16g# 16B/	.
.	16e/JJ	.
8BBB/	16g#LL 16d# 16A/	.
.	16f#/JJ	.
16EE`>\LL	(8f#L 8d# 8A/	.
(16D#\	.	.
16E\)	8eJ 8B 8G#/)	.
16AA#X`>\	.	.
(16BB\	8r	.
16GG#\JJ)	.	.
=94	=94	=94
*	*tuplet	*
!	!LO:TUP:b:problem=klamra łukowa	!
4.C# 4.CC#/	24B/LL	rf
.	24c#/	.
.	24e#X/	.
.	24g#/	.
.	24f#/	.
.	24e#/JJ	.
.	16ddn^\LL	.
.	16cc#\JJ	.
16FF#\LL	4b 4f# 4c#/	.
16AA\	.	.
16C#\	.	.
16F#\	.	.
16cn\	8a/	.
16B\JJ	.	.
=95	=95	=95
4r	16A#X/LL	.
.	16B/JJ	.
!	!LO:TUP:b:problem=klamra łukowa	!
.	48d#/LLL	.
.	48c#/	.
.	48B/	.
.	48f#/	.
.	48e/	.
.	48d#/JJJ	.
!	!LO:SIC:v:o=16cc#LL 16d# 16A#/	!
8BB 8BBB/	16cc#LL 16d# 16An/	.
.	16b/JJ	.
!	!LO:SIC:v:o=4a 4d# 4A#/	!
16EE/LL	4a 4d# 4A/	.
16GG#/	.	.
!	!	!LO:HP:b=2
16BB/	.	>
16E/	.	.
16A/	8g#/	.
16G#/JJ	.	]
!!LO:LB:g=original
=96	=96	=96
4r	16d#/LL	.
.	16e/JJ	.
!	!LO:TUP:b:problem=klamra łukowa	!
.	48g#/LLL	.
.	48f#/	.
.	48e/	.
.	48b/	.
.	48a/	.
.	48g#/JJJ	.
!	!LO:TUP:b:problem=klamra łukowa	!
8G# 8GG#\	24gg#:LL 24b: 24e:/	.
.	24ff#/	.
.	24ee/JJ	.
4A 4AA\	16dd#LL 16a 16e/	.
.	16cc#/JJ	.
.	16bLL 16f# 16c#/	.
.	16a/JJ	.
8AA/	16g#LL 16c# 16A/	.
.	16f#/JJ	.
=97	=97	=97
4BB/	16cc#LL 16g# 16e/	.
.	16B/JJ	.
.	16bLL 16g# 16B/	.
.	16e/JJ	.
8BBB/	16g#LL 16d# 16A/	.
.	16f#/JJ	.
8EE/	16f#LL 16B 16G#/	.
.	16e/JJ	.
!	!LO:TX:b:i:t=ten:mod=ten.	!
4AA/	16c#/	.
.	16eeLL 16cc#\	.
.	16dd# 16b\	.
.	16cc#JJ 16a\	.
=98	=98	=98
8BB\L	16cc#LL 16a\	.
.	16bJJ 16g#\	.
8BBB\J	16D#X</LL	.
.	16a/	.
8D# 8DD#\	16b 16f# 16B/	rf
.	16a/JJ	.
8E 8EE\	16aLL 16e 16B/	.
.	16g#/JJ	.
4AA\	16C#</LL	.
.	16f#/	.
.	16g# 16c# 16A/	rf
.	16f#/JJ	.
!!LO:LB:g=original
=99	=99	=99
8BB/	16f#LL 16B 16G#/	.
.	16e/JJ	.
!	!LO:TX:t=P:problem=mixed beam	!
4BBB\	16BB</LL	rf
.	16bb 16gg# 16ee 16b\	.
.	16ccc# 16gg# 16ee 16b^>\	.
.	16bbJJ 16gg# 16ee 16b\	.
8BB\	16eLL 16A< 16F#</	.
.	16d#/JJ	.
!	!LO:TX:t=P:problem=mixed beam	!
8BBB\	16BB</LL	rf
!	!LO:MO:mod=!LO&colon;TX&colon;a&colon;i&colon;t=rall.	!
!	!LO:TX:b:i:t=rallen	!
.	16bb 16ff# 16dd# 16a\	.
8r	16cccn 16ff# 16dd# 16a^>\	.
.	16bbJJ 16ff# 16dd# 16a\	.
=100||	=100||	=100||
*k[]	*k[]	*
!	!LO:MO:mod=!LO&colon;TX&colon;a&colon;i&colon;t=a tempo	!
!	!LO:TX:b:i:t=a tempo	!LO:DY:rj
!	!LO:N:n=3:vis=8	!
!	!LO:N:n=2:vis=8	!
8C 8CC\	8.cL 8.G< 8.E</	ff
8cL 8G 8E 8C\	.	.
.	16e/L	.
8cJ 8G 8E 8C\	16g/	.
.	16cc/JJ	.
8cL 8G 8E 8C\	16ee\LL	.
.	16gg\	.
8c 8G 8E 8C\	16fff\	.
.	16eee\	.
8cJ 8G 8E 8C\	16ddd\	.
.	16ccc\JJ	.
=101	=101	=101
8FF/	(4.bb^\	.
8dL 8c 8A 8F\	.	.
8dJ 8c 8A 8F\	.	.
8dL 8c 8A 8F\	4aa\)	.
8d 8c 8A 8F\	.	.
8dJ 8c 8A 8F\	8r	.
!!LO:LB:g=original
=102	=102	=102
8GG/	8.gS\L	.
8fL 8d 8B 8G\	.	.
.	16g\L	.
8fJ 8d 8B 8G\	16b\	.
.	16dd\JJ	.
8fL 8d 8B 8G\	16ff\LL	.
.	16ee\	.
8f 8d 8B 8G\	16dd\	.
.	16aa\	.
8fJ 8d 8B 8G\	16gg\	.
.	16ff\JJ	.
=103	=103	=103
8AA/	4.ff\	.
8eL 8c 8A\	.	.
8eJ 8c 8A\	.	.
8eL 8c 8A\	4ee\	.
8e 8c 8A\	.	.
8eJ 8c 8A\	8r	.
=104	=104	=104
*	*Xtuplet	*
!	!LO:N:vis=32%5..	!
8GG/	16%5ff^\	.
8eL 8c#X 8B-X 8G\	.	.
8eJ 8c# 8B- 8G\	.	.
.	16ee\	.
!	!LO:TX:b:t=man_can_do:ext=ud:problem=text with extention lines	!
!	!LO:N:vis=32%5..	!
8FF#X/	16%5ee^\	.
8d#XL 8cn 8A 8F#X\	.	.
8d#J 8c 8A 8F#\	.	.
.	16dd#X\	.
=105	=105	=105
!	!LO:N:vis=32%5..	!
8GG#X/	16%5ff^\	.
8eL 8dn 8B 8G#X\	.	.
8eJ 8d 8B 8G#\	.	.
.	16ee\	.
!	!LO:N:vis=32%5..	!
8AA/	16%5ddn\	.
8eL 8c 8A\	.	.
8eJ 8c 8A\	.	.
.	16cc\	.
=106	=106	=106
!	!LO:N:vis=32%5..	!
8DD#X/	16%5cc\	.
8BL 8A 8F 8D#X\	.	.
8BJ 8A 8F 8D#\	.	.
.	16b\	.
!	!LO:N:vis=32%5..	!
8EE/	16%5a/	.
8BL 8G 8E\	.	.
8BJ 8G 8E\	.	.
.	16g/	.
!!LO:LB:g=original
=107	=107	=107
!	!LO:N:vis=32%5..	!
8CC/	16%5a/	.
8GL 8E 8C\	.	.
8GJ 8E 8C\	.	.
.	16g/	.
!	!LO:N:vis=32%5..	!
8CC/	16%5f#X/	rf
8A#XL 8E 8C\	.	.
8A#J 8E 8C\	.	.
.	16e/	.
=108	=108	=108
8BBB/	4cc#X\	.
8g#XL 8B\	.	.
8g#J 8B\	8b\	.
8AA/	4cccn^\	.
8f#XL 8d#X 8A\	.	.
8f#J 8d# 8A\	8bb\	.
=109||	=109||	=109||
*k[f#c#g#d#]	*k[f#c#g#d#]	*
!	!LO:MO:mod=!LO&colon;TX&colon;a&colon;i&colon;t=poco a poco più adagio	!
!	!LO:TX:b:i:t=poco a poco più adagio	!
8GG#/	4fff#\	.
8eL 8B 8G#\	.	.
8eJ 8B 8G#\	8eee\	.
8AA/	16ddd#\LL	.
.	16ccc#\	.
8e#XL 8c# 8A\	16bb#X\	.
.	16ccc#\	.
8f#J 8c# 8A\	16aa\	.
.	16ff#\JJ	.
*clefG2	*	*
=110	=110	=110
*	*tuplet	*
!	!LO:TUP:a:problem=klamra łukowa	!
4g# 4e 4B/	24bb\LL	.
.	24b\	.
.	24bb\	.
.	24b\	.
.	24bb\	.
.	24b\	.
8g# 8e 8B/	24bb\	.
.	24b\	.
.	24bb\JJ	.
*	*Xtuplet	*
8f#L 8d# 8B/	24b\LL	.
.	24bb\	.
.	24b\	.
8g# 8e 8B/	24bb\	.
.	24b\	.
.	24bb\	.
8aJ 8d# 8B/	24b\	.
.	24bb\	.
.	24b\JJ	.
!!LO:LB:g=original
=111	=111	=111
!LO:MO:null:mod=*ped	!LO:MO:mod=*null:null	!
*	*ped	*
8g# 8e/	24eee\LL	.
.	24ee\	.
.	24eee\	.
*Xtuplet	*	*
24r	24ee\	.
24cc#LL 24a/	24eee\	.
24dd# 24b/	24ee\	.
24ee 24cc#/	24eee\	.
24dd# 24b/	24ee\	.
24cc#JJ 24a/	24eee\JJ	.
8b 8g#/	24ee\LL	.
.	24eee\	.
.	24ee\	.
24r	24eee\	.
24aLL 24f#/	24ee\	.
24b 24g#/	24eee\	.
24cc# 24a/	24ee\	.
24b 24g#/	24eee\	.
24aJJ 24f#/	24ee\JJ	.
=112	=112	=112
8g# 8e/	24eee\LL	.
.	24ee\	.
.	24eee\	.
24r	24ee\	.
24f#LL 24A/	24eee\	.
24g# 24B/	24ee\	.
24a 24c#/	24eee\	.
24g# 24B/	24ee\	.
24f#JJ 24A/	24eee\JJ	.
8e 8G#/	24ee\LL	.
.	24eee\	.
.	24ee\	.
8r	24eee\	.
.	24ee\	.
.	24eee\JJ	.
*clefF4	*	*
!LO:MO:null:mod=*Xped	!LO:MO:mod=*null:null	!
*	*Xped	*
8A 8F# 8BB\	24bb\LL	.
.	24b\	.
.	24bb\JJ	.
!!LO:PB:g=original
=113	=113	=113
*tuplet	*	*
!LO:TUP:a:problem=klamra łukowa	!	!
24EE\LL	8gg# 8b\	<
24GG#\	.	.
24BB\	.	.
24E\	24r	[
24G#\	24ee\LL	.
24B\JJ	24ff#\	.
!LO:TUP:a	!	!
24e\LL	24gg#\	.
24f#\	24ff#\	.
24g#\JJ	24ee\JJ	.
*Xtuplet	*	*
!	!LO:MO:mod=!null:null	!
!	!LO:N:n=3:vis=16	!
!	!LO:MO:mod=!null:null	!
!	!LO:N:n=2:vis=16	!
24AA\LL	16.dd#:LL 16.a: 16.e:/	.
24C#\	.	.
24E\	.	.
.	32cc#/JJk	.
24A\	24r	.
24c#\	24ff#\LL	.
24e#X\JJ	24gg#\	.
24f#\LL	24aa\	.
24g#\	24gg#\	.
24a\JJ	24ff#\JJ	.
=114	=114	=114
24BB\LL	16.ee\LL	.
24D#\	.	.
24F#\	.	.
.	32dd#\JJk	.
24B\	24r	.
*clefG2	*	*
24d#\	24bb\LL	.
24f#\JJ	24bb\	.
24b\LL	24bb\	.
24cc#\	24aa#X\	.
24dd#\JJ	24aan\JJ	.
!LO:TX:t=P:problem=mixed beam	!	!
16.ee\LL	24gg#\LL	.
.	24bb\	.
.	24eeeJJ 24ee\	.
32G#/JJk	.	.
*clefF4	*	*
!	!LO:MO:mod=!LO&colon;TX&colon;a&colon;i&colon;t=rall.	!
!	!LO:TX:b:i:t=rallen	!
16.A\LL	24ccc#T\LL	.
.	16qqbb/LL	.
!	!LO:TX:a:t=P:problem=8va	!
.	16qqccc#/JJ	.
*	*8va	*
.	24aaa 24ccc#\	.
.	24fff#JJ 24aa\	.
32AT\JJk	.	.
!LO:TX:t=P:problem=mixed beam	!	!
16.B\LL	24eeeLL 24gg#\	.
.	24fff# 24aa\	.
.	24ddd#JJ 24ff#\	.
32BB/JJk	.	.
*	*X8va	*
=115	=115	=115
!	!LO:MO:mod=!LO&colon;TX&colon;a&colon;B&colon;t=Tempo I	!
!	!LO:TX:b:i:t=tempo 1.	!
!	!LO:TX:a:i:t=loco	!
4E\	16eee 16gg# 16ee\	.
.	16e/LL	.
.	16g#/	.
.	16b/JJ	.
8G# 8GG#\	16eeLL 16b 16e\	.
.	16dd#\JJ	.
16AA\LL	4dd#: 4a: 4e:/	.
16C#\	.	.
16E\	.	.
16A\	.	.
16d#^\	8cc#/	.
16c#\JJ	.	.
!!LO:LB:g=original
=116	=116	=116
4r	(16A#X/LL	.
.	16B/	.
.	16d#/	.
.	16f#/JJ)	.
8B 8BB\	16cc#LL 16d# 16An/	.
.	16b/JJ	.
16EE/LL	4a 4d# 4B/	.
16GG#/	.	.
16BB/	.	.
16E/	.	.
16A/	8g#/	.
16G#/JJ	.	.
=117	=117	=117
4r	16d#/LL	.
.	16e/	.
.	16g#/	.
.	16b/JJ	.
8G# 8GG#\	16ff#LL 16b 16e/	.
.	16ee/JJ	.
4A 4AA\	16dd#LL 16a 16e/	.
.	16cc#/JJ	.
.	16bLL 16f# 16c#/	.
.	16a/JJ	.
8AA/	16g#LL 16c# 16A/	.
.	16f#/JJ	.
=118	=118	=118
4BB/	16cc#LL 16g# 16e/	.
.	16b/JJ	.
.	16bLL 16g# 16B/	.
.	16e/JJ	.
8BBB/	16g#LL 16d# 16A/	.
.	16f#/JJ	.
16EE`>\LL	8f#L 8d# 8A/	.
(16D#\	.	.
16E\)	8eJ 8B 8G#/	.
16AA#X`>\	.	.
(16BB\	8r	.
16GG#\JJ)	.	.
!!LO:LB:g=original
=119	=119	=119
*	*tuplet	*
!	!LO:TUP:b:problem=klamra łukowa	!
4.C# 4.CC#/	48B/LLL	.
.	48c#/	.
.	48e#X/	.
.	48g#/	.
.	48f#/	.
.	48e#/JJJ	.
!	!LO:TUP:b:problem=klamra łukowa	!
.	48b/LLL	.
.	48a/	.
.	48g#/	.
.	48dd#/	.
.	48cc#/	.
.	48b/JJJ	.
!	!LO:TUP:a:problem=klamra łukowa	!
.	48gg#\LLL	.
.	48ff#\	.
.	48ee#X\	.
.	48ddn\	.
.	48cc#\	.
.	48b\JJJ	.
16FF#\LL	4b/	.
16AA\	.	.
16C#\	.	.
16F#\	.	.
16cn^\	8a/	.
16B\JJ	.	.
=120	=120	=120
!	!LO:TUP:b:problem=klamra łukowa	!
4.BB 4.BBB/	48r	.
.	48A#X/LLL	.
.	48B/	.
.	48d#/	.
.	48c#/	.
.	48B/JJJ	.
!	!LO:TUP:b:problem=klamra łukowa	!
.	48f#/LLL	.
.	48e/	.
.	48d#/	.
.	48a/	.
.	48g#/	.
.	48f#/JJJ	.
!	!LO:TUP:a:problem=klamra łukowa	!
.	48aanX\LLL	.
.	48ff#\	.
.	48dd#\	.
.	48b\	.
.	48cc#\	.
.	48a\JJJ	.
16EE/LL	4f##X/	.
16GG#/	.	.
16BB/	.	.
16E/	.	.
16A/	8g#/	.
16G#/JJ	.	.
!!LO:LB:g=original
=121	=121	=121
!	!LO:TUP:b:problem=klamra łukowa	!
4G# 4GG#\	48d#/LLL	.
.	48e/	.
.	48b/	.
.	48f##X/	.
.	48g#/	.
.	48ee/JJJ	.
!	!LO:TUP:a:problem=klamra łukowa	!
.	48a#X\LLL	.
.	48b\	.
.	48bb\	.
.	48aan\	.
.	48gg#\	.
.	48ff#\JJJ	.
!	!LO:TUP:a:problem=klamra łukowa	!
8e 8B 8G#\	48ee\LLL	sf
.	48dd#\	.
.	48cc#\	.
.	48b\	.
!	!LO:SIC:v:o=48a#\	!
.	48an\	.
.	48g#\JJJ	.
!	!LO:TUP:a	!
4A 4AA\	48e#X\LLL	.
.	48f##\	.
!	!LO:SIC:v:o=48a#\	!
.	48a\	.
.	48cc#\	.
.	48ff#\	.
.	48gg#\JJJ	.
!	!LO:TUP:a	!
.	48aa\LLL	.
!	!LO:SIC:v:o=48a#\	!
.	48a\	.
.	48cc#\	.
.	48ff#\	.
.	48aa\	.
.	48ccc#\JJJ	.
.	16qqff#/LL	.
!	!LO:TX:a:t=P:problem:8va	!
.	16qqgg#/JJ	.
*	*Xtuplet	*
*	*8va	*
!	!	!LO:DY:b:rj
8f# 8c# 8A\	48aaa\LLL	sf
.	48ggg#\	.
.	48fff#\	.
.	48eee\	.
.	48ddd#\	.
.	48ccc#\JJJ	.
*	*X8va	*
=122	=122	=122
!	!	!LO:MO:mod=!LO&colon;HP&colon;t=stacc. e decresc.
!	!LO:TX:a:i:t=loco	!LO:HP:b:t=staccato e decres
8B 8BB\	48bb`\LLL	>
.	48aa`\	.
.	48gg#`\	.
.	48ff#`\	.
.	48ee`\	.
.	48dd#`\JJJ	.
*clefG2	*	*
8g# 8e 8B/	48cc#/LLL	.
.	48b/	.
.	48a/	.
.	48g#/	.
.	48f#/	.
.	48e/JJJ	.
*clefF4	*	*
8A 8F# 8BB\	48d#/LLL	.
.	48c#/	.
.	48B/	.
.	48A</	.
.	48G#</	.
.	48F#</JJJ	.
8EE\	8E</	.
4AA\	16C#</LL	rf
.	16ee 16cc#\	.
.	16dd# 16b\	.
.	16cc#JJ 16a\	.
!!LO:LB:g=original
=123	=123	=123
8BB\L	(16cc#LL 16a\	.
.	16bJJ 16g#\)	.
8BBB\J	16D#</LL	.
.	16a/	.
8D# 8DD#\	16b 16f# 16B/	rf
.	16a/JJ	.
8E 8EE\	(16aLL 16e 16B/	.
.	16g#/JJ)	.
4AA\	16C#</LL	.
.	16f#/	.
.	16g# 16c# 16A/	rf
.	16f#/JJ	.
=124	=124	=124
8BB\	16f#LL 16B 16G#/	.
.	16e/JJ	.
!	!LO:TX:t=P:problem=mixed beam	!
4BBB\	16BB</LL	f
.	16bb 16ff# 16dd# 16a\	.
.	16cccn 16ff# 16dd# 16a\	.
.	16bbJJ 16ff# 16dd# 16a\	.
!LO:MO:null:mod=*ped	!LO:MO:mod=*null:null	!
*	*ped	*
*	*Xtuplet	*
!LO:MO:mod=8EE\	!LO:MO:mod=24gg#LL 24ee 24b/	!
8EE\	24gg#LL 24ee 24b/	.
.	24ddd#/JJ	.
*	*tuplet	*
!	!LO:TX:t=P:problem:triola	!
!	!LO:TUP:num=3:b:problem=klamra łukowa, cyfra 3	!
!	!LO:N:vis=32	!
!	!LO:MO:mod=72eee/LLL	!
.	72eee/LLL	.
!	!LO:N:vis=32	!
.	72bb/	.
!	!LO:N:vis=32	!
.	72gg#/JJJ	.
!	!LO:MO:mod=16ee/	!
24ryy	16ee/	.
!LO:TX:a:i:t=m.g.:problem:m.g. nad powinno wyświetlać się nad górnym systemem	!	!
24dd#>\	.	.
.	16ryy	.
*Xtuplet	*	*
!LO:N:vis=32	!	!
72ee>\LLL	.	.
!LO:N:vis=32	!	!
72b>\	.	.
!LO:N:vis=32	!	!
72g#>\JJJ	.	.
*	*Xtuplet	*
16e>\	24ryy	.
!	!LO:TX:a:i:t=m.d.	!
.	24d#/	.
16ryy	.	.
!	!LO:N:vis=32	!
.	72e/LLL	.
!	!LO:N:vis=32	!
.	72B/	.
!	!LO:N:vis=32	!
.	72G#/JJJ	.
!!LO:LB:g=original
=125	=125	=125
*Xtuplet	*	*
24ryy	16E</	.
24D#\	.	.
.	16rc<	.
!LO:N:vis=32	!	!
72E\LLL	.	.
!LO:N:vis=32	!	!
72BB\	.	.
!LO:N:vis=32	!	!
72GG#\JJJ	.	.
!LO:MO:null:mod=*Xped	!LO:MO:mod=*null:null	!
*	*Xped	*
!LO:N:vis=32	!	!
48EE\LLL	8r	.
!LO:N:vis=32	!	!
48GG#\	.	.
!LO:N:vis=32	!	!
48BB\	.	.
!LO:N:vis=32	!	!
48Dn\	.	.
!LO:N:vis=32	!	!
48G#\	.	.
!LO:N:vis=32	!	!
48B\JJJ	.	.
*clefG2	*	*
48dn/LLL	8eee: 8bb: 8gg#: 8ee:\	f
48g#/	.	.
48b/	.	.
48ddn/	.	.
48b/	.	.
48g#/JJJ	.	.
16e/	24r	.
!LO:MO:null:mod=*ped	!LO:MO:mod=*null:null	!
*	*ped	*
.	24ddd#X\	.
16r	.	.
!	!LO:N:vis=32	!
.	72eee\LLL	.
!	!LO:N:vis=32	!
.	72cccn\	.
!	!LO:N:vis=32	!
.	72aa\JJJ	.
24r	16ee\	.
24dd\	.	.
.	16r	.
!LO:N:vis=32	!	!
72ee\LLL	.	.
!LO:N:vis=32	!	!
72ccn\	.	.
!LO:N:vis=32	!	!
72a\JJJ	.	.
24e\	24r	.
*clefF4	*	*
24ryy	24d#/	.
!	!LO:N:vis=32	!
24ryy	72e/LLL	.
!	!LO:N:vis=32	!
.	72cn/	.
!	!LO:N:vis=32	!
.	72A</JJJ	.
=126	=126	=126
24ryy	16E</	.
24D#\	.	.
.	16rc<	.
!LO:N:vis=32	!	!
!LO:MO:mod=72E\LLL	!	!
72E\LLL	.	.
!LO:N:vis=32	!	!
72Cn\	.	.
!LO:N:vis=32	!	!
72AA\JJJ	.	.
!LO:MO:null:mod=*Xped	!LO:MO:mod=*null:null	!
*	*Xped	*
48EE\LLL	8r	.
48AA\	.	.
48C\	.	.
48E\	.	.
48A\	.	.
48cn\JJJ	.	.
*clefG2	*	*
48e\LLL	8eee: 8cccn: 8aa: 8ee:\	f
48a\	.	.
48ccn\	.	.
48ee\	.	.
48cc\	.	.
48a\JJJ	.	.
!!LO:LB:g=original
!!LO:MO:ori
=-	=-	=-
!!LO:MO:end
*clefF4	*	*
!LO:MO:null:mod=*ped	!LO:MO:mod=*null:null	!
*	*ped	*
!LO:MO:mod=16GG#\	!	!
16GG#\	24ryy	.
!	!LO:MO:mod=24ccc##X/	!
.	24ccc##X/	.
16ryy	.	.
!	!LO:N:vis=32	!
!	!LO:MO:mod=72ddd#/LLL	!
.	72ddd#/LLL	.
!	!LO:N:vis=32	!
.	72cccn/	.
!	!LO:N:vis=32	!
.	72aa/JJJ	.
24ryy	24ff#/	.
24cc##X>\	24ryy	.
*tuplet	*	*
!LO:TX:t=P:problem:triola	!LO:TX:b:i:t=manc.	!
!LO:TUP:a:problem=klamra łukowa, cyfra 3	!	!
!LO:N:vis=32	!	!
72dd#>\LLL	24ryy	.
!LO:N:vis=32	!	!
72ccn>\	.	.
!LO:N:vis=32	!	!
72a>\JJJ	.	.
*Xtuplet	*	*
24e>\	24ryy	.
24ryy	(24c##X/	.
!	!LO:N:vis=32	!LO:HP:a
24ryy	72d#/LLL	<
!	!LO:N:vis=32	!
.	72cn/	.
!	!LO:N:vis=32	!
.	72A/JJJ)	[[
=127	=127	=127
24ryy	16F#</	.
24C##X\	.	.
.	16ryy	.
!LO:N:vis=32	!	!
(>72D#\LLL	.	.
!LO:N:vis=32	!	!
72Cn\	.	.
!LO:N:vis=32	!	!
72AA\JJJ)	.	.
!LO:MO:null:mod=*Xped	!LO:MO:mod=*null:null	!
*	*Xped	*
*	*tuplet	*
!	!LO:TUP:b:problem=klamra łukowa	!
4EE\	48F#</LLL	.
.	48A</	.
.	48cn</	.
.	48d#/	.
.	48f#/	.
.	48a/JJJ	.
!	!LO:TX:t=P:problem=mixed beam	!
!	!LO:TUP:a:problem=klamra łukowa	!
.	48ccn\LLL	.
.	48dd#\	.
.	48ff#\	.
.	32aa\	.
.	32d#JJJ 32A/	.
!LO:MO:mod=8EL 8EE\	!	!
8EL 8EE\	8.eL 8.G#/	p
8E 8EE\	.	.
!	!	!LO:HP:t=e dim
.	16d#L 16A/	>
8EJ 8EE\	16e 16G#/	.
.	16d#JJ 16A/	.
=128	=128	=128
8EL 8EE\	8.eL 8.G#/	.
8E 8EE\	.	.
.	16c#<L 16A</	.
8EJ 8EE\	16B< 16G#</	.
.	16c#<JJ 16A</	.
!	!LO:TX:b:i:t=ten:mod=ten.	!
[<4.E [<4.EE\	[>4.B< [>4.G#</	.
=129	=129	=129
!LO:MO:mod=2.E] 2.EE;<\]	!	!
2.E] 2.EE;<\]	2.B<] 2.G#<;>/]	.
!	!LO:TX:b:i:t=fine	!
==	==	==
*-	*-	*-
!!!system-decoration: {(s1,s2)}
!!!RDF**kern: < = below
!!!RDF**kern: > = above
!!!filter-modern: sic -sq | shed -e "s/LO:DY:(a|b|rj)/LO:dy:$1/L" | autostem -r | tie -s | shed -k -e "s/([^a-gA-Gn#X-])[<>]/$1/g" | shed -e "s/TX(.*):t=P:/tx$1:t=P:/LG" | shed -k -e "s/:TUP:/:tup:/L" | modori -m
!!!ENC: Marta Chmielewska
!!!END: 2021-08-10
!!!EED: Anastazja Marusiak
!!!EEV: 2021-07-27
!!!ENC-modern: Katarzyna Serwa
!!!END-modern: 2022-09-14
